src/Pure/16/symbolic/actions/mail-drafts-symbolic.svg

<?xml version="1.0" encoding="UTF-8" standalone="no"?>
<svg
   width="16"
   height="16"
   version="1.1"
   id="svg2"
   sodipodi:docname="mail-drafts-symbolic.svg"
   inkscape:version="1.4.2 (ebf0e940d0, 2025-05-08)"
   xmlns:inkscape="http://www.inkscape.org/namespaces/inkscape"
   xmlns:sodipodi="http://sodipodi.sourceforge.net/DTD/sodipodi-0.dtd"
   xmlns="http://www.w3.org/2000/svg"
   xmlns:svg="http://www.w3.org/2000/svg">
  <defs
     id="defs2">
     <style
        id="current-color-scheme"
        type="text/css">
        .ColorScheme-Text { color:#363636; }
     </style>
  </defs>
  <sodipodi:namedview
     id="namedview2"
     pagecolor="#ffffff"
     bordercolor="#000000"
     borderopacity="0.25"
     inkscape:showpageshadow="2"
     inkscape:pageopacity="0.0"
     inkscape:pagecheckerboard="0"
     inkscape:deskcolor="#d1d1d1"
     inkscape:zoom="49.6875"
     inkscape:cx="8"
     inkscape:cy="8"
     inkscape:window-width="1920"
     inkscape:window-height="1010"
     inkscape:window-x="0"
     inkscape:window-y="0"
     inkscape:window-maximized="1"
     inkscape:current-layer="svg2" />
  <path
     id="path1"
     style="fill:currentColor"
     class="ColorScheme-Text"
     d="M 4 1 C 2.892 1 2 1.892 2 3 L 2 13 C 2 14.108 2.892 15 4 15 L 12 15 C 13.108 15 14 14.108 14 13 L 14 7.9511719 L 13 8.9511719 L 13 13 C 13 13.554 12.554 14 12 14 L 4 14 C 3.446 14 3 13.554 3 13 L 3 3 C 3 2.446 3.446 2 4 2 L 10.048828 2 L 11.048828 1 L 4 1 z M 13.193359 1.0996094 C 12.682118 1.0996094 12.170997 1.2938119 11.779297 1.6855469 L 15.314453 5.2226562 C 16.097923 4.4391862 16.097933 3.1759781 15.314453 2.3925781 L 14.607422 1.6855469 C 14.215687 1.2938119 13.704601 1.0996094 13.193359 1.0996094 z M 11.072266 2.3925781 L 4 9.4648438 L 4 13 L 7.5351562 13 L 14.607422 5.9296875 L 11.072266 2.3925781 z M 11.072266 3.8066406 L 13.193359 5.9296875 L 7.5351562 11.585938 L 5.4140625 9.4648438 L 11.072266 3.8066406 z " />
</svg>

<svg width="16" height="16" version="1.1" xmlns="http://www.w3.org/2000/svg">
 <path d="m4 1c-1.108 0-2 0.892-2 2v10c0 1.108 0.892 2 2 2h8c1.108 0 2-0.892 2-2v-5.0488l-1 1v4.0488c0 0.554-0.446 1-1 1h-8c-0.554 0-1-0.446-1-1v-10c0-0.554 0.446-1 1-1h6.0488l1-1h-7.0488z" fill="#363636"/>
 <path class="ColorScheme-Text" d="m14.607 1.6863c-0.78347-0.78347-2.045-0.78347-2.8284 0l3.5355 3.5355c0.78347-0.78347 0.78348-2.045 0-2.8284zm-3.5355 0.70711-7.0711 7.0711-6e-7 3.5355h3.5355l7.0711-7.0711zm0 1.4142 2.1213 2.1213-5.6569 5.6569-2.1213-2.1213z" fill="#363636"/>
</svg>
